assets/icons/icon_svg/AttendList_icon.svg

<svg enable-background="new 0 0 192 192" viewBox="0 0 192 192" xmlns="http://www.w3.org/2000/svg"><path d="m0 0h192v192h-192z" fill="none"/><path d="m69.9 122.1v39.9h-39.9v-39.9zm3.8-19h-47.5c-8.4 0-15.2 6.9-15.2 15.2v47.4c0 8.4 6.9 15.2 15.2 15.2h47.4c8.4 0 15.2-6.9 15.2-15.2v-47.4c.1-8.3-6.8-15.2-15.1-15.2z"/><path d="m69.9 30v39.9h-39.9v-39.9zm3.8-19h-47.5c-8.3 0-15.2 6.9-15.2 15.2v47.4c0 8.4 6.9 15.2 15.2 15.2h47.4c8.4 0 15.2-6.9 15.2-15.2v-47.4c.1-8.3-6.8-15.2-15.1-15.2z"/><path d="m161.8 30v39.9h-39.9v-39.9zm3.8-19h-47.4c-8.4 0-15.2 6.9-15.2 15.2v47.4c0 8.4 6.9 15.2 15.2 15.2h47.4c8.4 0 15.2-6.9 15.2-15.2v-47.4c0-8.3-6.8-15.2-15.2-15.2z"/><path d="m180.6 168h-12.6v12.6.4h13v-13z"/><path d="m142.1 168h13v12.8h-13z"/><path d="m129.1 180.8v-38.8h13v13h38.8v-52.1l-12.8.2v12.9h-26v-13h-25.9c-6.8.9-12.1 6.3-13.1 13.1v64.9z"/></svg>

<?xml version="1.0" encoding="utf-8"?>
<!-- Generator: Adobe Illustrator 25.4.1, SVG Export Plug-In . SVG Version: 6.00 Build 0)  -->
<svg version="1.1" id="レイヤー_1" xmlns="http://www.w3.org/2000/svg" xmlns:xlink="http://www.w3.org/1999/xlink" x="0px"
	 y="0px" viewBox="0 0 192 192" style="enable-background:new 0 0 192 192;" xml:space="preserve">
<style type="text/css">
	.st0{fill:none;}
</style>
<g id="レイヤー_1_00000106132782791445299130000016034156015172165293_">
</g>
<g id="_x31_">
	<rect class="st0" width="192" height="192"/>
	<g>
		<path d="M69.9,122.1V162H30v-39.9H69.9 M73.7,103.1H26.2c-8.4,0-15.2,6.9-15.2,15.2v47.4c0,8.4,6.9,15.2,15.2,15.2h47.4
			c8.4,0,15.2-6.9,15.2-15.2v-47.4C88.9,110,82,103.1,73.7,103.1L73.7,103.1z"/>
		<path d="M69.9,30v39.9H30V30H69.9 M73.7,11H26.2C17.9,11,11,17.9,11,26.2v47.4c0,8.4,6.9,15.2,15.2,15.2h47.4
			c8.4,0,15.2-6.9,15.2-15.2V26.2C88.9,17.9,82,11,73.7,11L73.7,11z"/>
		<path d="M161.8,30v39.9h-39.9V30H161.8 M165.6,11h-47.4c-8.4,0-15.2,6.9-15.2,15.2v47.4c0,8.4,6.9,15.2,15.2,15.2h47.4
			c8.4,0,15.2-6.9,15.2-15.2V26.2C180.8,17.9,174,11,165.6,11L165.6,11z"/>
		<polygon points="180.6,168 168,168 168,180.6 168,181 181,181 181,168 		"/>
		<rect x="142.1" y="168" width="13" height="12.8"/>
		<path d="M129.1,180.8V142h13v13h38.8v-52.1l-12.8,0.2V116h-26v-13h-25.9c-6.8,0.9-12.1,6.3-13.1,13.1V181L129.1,180.8z"/>
	</g>
</g>
</svg>
